X:28
T:A Hornpipe
S:Petrie's Collection of Strathspey Reels and Country Dances &c., 1790
Z:Steve Wyrick , 3/19/04
N:Petrie's First Collection, page 13
L:1/8
V:1 name = "violin"
V:2 name = "bass" clef=bass middle=d transpose=-24
M:2/4
R:Hornpipe
K:G
[V:1] B/c/|{^c}dB/G/ B/=c/A/F/|GDDB,|C   e B,d  |c/B/A/G/ G/F/E/D/|
[V:2]    z|    gb    a    d   |gBGg |e/d/c d/c/B|A  ^c    d  =c   |
[V:1] {^c}dB/G/ B/=c/A/F/|Gg a/g/f/e/|f/a/f/d/ e/g/e/^c/|d    D    D:|
[V:2]     BG    A    D   |GB^c   A   |d   f    g   a    |z/d'/b/f/ d:|
[V:1] |:d/e/|=f/e/d/c/ B/f/e/d/|c   A    Ac/d/|e/d/c/B/ A/e/d/c/|B   G     GD|
[V:2] |:z   | d  =f   ^g   e   |z/a/e/c/ A2   |z   e   ^f   d   |z/g/b/d'/ gz|
[V:1] E   g    D   f   |C   e    B,  d   |{c}BA/G/ F/G/A/F/|G   D    G,:|
[V:2] c/d/e/c/ B/c/d/d/|c/B/c/A/ G/A/B/G/|   gc    d   D   |z/G/B/d/ G :|
% The above code was written using Phil Taylor's BarFly abc reader/converter/player program.
% Other abc converters (e.g. abc2ps) may require everything after the word "bass" to be
% deleted in the V:2 header line for correct display of notes the bass clef, or require that
% the M: and K: fields be repeated directly under the V:1 header line to display the meter
% and key signature on both staffs.  Some abc MIDI players (e.g. abc2midi) will not play
% multiple-voiced abc code.  -SW
